neru-dark-classic/22x22/panel/nitroshare-indicator.svg

<svg xmlns="http://www.w3.org/2000/svg" width="22" height="22" version="1"><defs><style id="current-color-scheme" type="text/css"></style></defs><path d="M13 3L9 7H6v10h3v3l4-4h3V6h-3zM7 8h2l4 4V9h2v6h-2l-4-4v3H7z" fill="currentColor" color="#d3dae3"/></svg>

<svg xmlns="http://www.w3.org/2000/svg" width="22" height="22" version="1">
 <defs>
  <style id="current-color-scheme" type="text/css">
   .ColorScheme-Text { color:#d3dae3; } .ColorScheme-Highlight { color:#5294e2; }
  </style>
 </defs>
 <path style="fill:currentColor" class="ColorScheme-Text" d="M 13,3 9,7 H 6 V 17 H 9 V 20 L 13,16 H 16 V 6 H 13 Z M 7,8 H 9 L 13,12 V 9 H 15 V 15 H 13 L 9,11 V 14 H 7 Z"/>
</svg>
